twotone/svg/scatter_plot.svg

<svg xmlns="http://www.w3.org/2000/svg" width="24" height="24"><path fill="none" d="M0 0h24v24H0V0z"/><g fill="currentColor"><circle opacity=".3" cx="11" cy="6" r="2"/><circle opacity=".3" cx="16.6" cy="17.6" r="2"/><circle opacity=".3" cx="7" cy="14" r="2"/><path d="M7 10c-2.21 0-4 1.79-4 4s1.79 4 4 4 4-1.79 4-4-1.79-4-4-4zm0 6c-1.1 0-2-.9-2-2s.9-2 2-2 2 .9 2 2-.9 2-2 2zM15 6c0-2.21-1.79-4-4-4S7 3.79 7 6s1.79 4 4 4 4-1.79 4-4zm-4 2c-1.1 0-2-.9-2-2s.9-2 2-2 2 .9 2 2-.9 2-2 2zM16.6 13.6c-2.21 0-4 1.79-4 4s1.79 4 4 4 4-1.79 4-4-1.79-4-4-4zm0 6c-1.1 0-2-.9-2-2s.9-2 2-2 2 .9 2 2-.9 2-2 2z"/></g></svg>

<?xml version="1.0" encoding="utf-8"?>
<!-- Generator: Adobe Illustrator 19.1.0, SVG Export Plug-In . SVG Version: 6.00 Build 0)  -->
<svg version="1.1" xmlns="http://www.w3.org/2000/svg" xmlns:xlink="http://www.w3.org/1999/xlink" x="0px" y="0px" width="24px"
	 height="24px" viewBox="0 0 24 24" enable-background="new 0 0 24 24" xml:space="preserve">
<g id="Bounding_Boxes">
	<g id="ui_x5F_spec_x5F_header_copy_3">
	</g>
	<path fill="none" d="M0,0h24v24H0V0z"/>
</g>
<g id="Duotone" fill="currentColor">
	<g id="ui_x5F_spec_x5F_header_copy_2">
	</g>
	<g>
		<circle opacity="0.3" cx="11" cy="6" r="2"/>
		<circle opacity="0.3" cx="16.6" cy="17.6" r="2"/>
		<circle opacity="0.3" cx="7" cy="14" r="2"/>
		<path d="M7,10c-2.21,0-4,1.79-4,4s1.79,4,4,4s4-1.79,4-4S9.21,10,7,10z M7,16c-1.1,0-2-0.9-2-2s0.9-2,2-2s2,0.9,2,2S8.1,16,7,16z"
			/>
		<path d="M15,6c0-2.21-1.79-4-4-4S7,3.79,7,6s1.79,4,4,4S15,8.21,15,6z M11,8C9.9,8,9,7.1,9,6s0.9-2,2-2s2,0.9,2,2S12.1,8,11,8z"/>
		<path d="M16.6,13.6c-2.21,0-4,1.79-4,4s1.79,4,4,4s4-1.79,4-4S18.81,13.6,16.6,13.6z M16.6,19.6c-1.1,0-2-0.9-2-2s0.9-2,2-2
			s2,0.9,2,2S17.7,19.6,16.6,19.6z"/>
	</g>
</g>
</svg>
